X: 1311
T: BRADFORD'S WALTZ
C: S. Knaebel
B: Oliver Ditson "The Boston Collection of Instrumental Music" 1910 p.131 #1
F: http://conquest.imslp.info/files/imglnks/usimg/8/8f/IMSLP175643-PMLP309456-bostoncollection00bost_bw.pdf
%: 2012 John Chambers <jc:trillian.mit.edu>
M: 3/4
L: 1/8
K: C
%
V: 1
|:!p!\
c2 cc c2 | e4 c2 | c2 (Bc) .G.E | ((3EFE) D2 D2 |\
d2 dd d2 | f4 d2 | G2 A2 B2 | c4 z2 :|
|:!f!\
d2 dd d2 | g4 d2 | (d2 e2) .B2 | d4 c2 |\
A2 aa a2 | ^f4 e2 | e2 dd d2 | G2 z2 z2 :|
|:!p!\
(E=F).G.A.B.c | e2"^>"d4 | (BA) G2 =f2 | ("^>"^d2 e2) (GF) |\
(EF).G.A.B.c | e2 d3 G | (G2 e2) .d2 | c4 z2 H:|
K: F
|:!p!\
c4 A2 | (c2 f2) cc | (c2 g2) cc | c2 a2 c2 |\
c4 A2 | c2 g2 cc | c2_b2 (ag) | f4 z2 :|
%
V: 2
|:!p!\
E2 EE E2 | C2 E2 G2 | E2 E2 C2 | (C2 B,2) .B,2 |\
F2 D2 B,2 | [G2G,2] d2 B2 | G2 ^F2 =F2 | E4 z2 :|
|:!f!\
B2 BB B2 | B2 B2 B2 | (B2 c2) G2 | ^F4 A2 |\
D2 cc c2 | c2 c2 c2 | c2 B2 A2 | B2 z2 z2 :|
|:!p!\
(CD).E.=F.D.E | c2 "^>"B4 | (DC) B,2 d2 | c4 (ED) |\
(CD).E.F.D.E | c2 B3 G | F2 z2 F2 | E4 "^FINE"z2 H:|
K: F
|:!p!\
z2 (A2 F2) | z2 (A2 B2) | z2 (_B2 c2) | A2 F2 A2 |\
z2 (A2 F2) | z2 (A2 c2) | z2 d2 (cB) | "^D.C. AL FINE"A4 z2 :|

%%sep 1 1 500
%%sep 1 1 500
